X: 14041
T: JENNA'S JIG
C: Bob McQuillen Dec'09
B: Bob's Note Book 14 #41
%R: 6/8
%D:2009
Z: 2020 John Chambers <jc:trillian.mit.edu>
M: 6/8
L: 1/8
K: D	% and Bm
f \
| afa gfe | f2d Bef | gag fed | c2B AFA |\
| BGB A2A | BdB AFA | dfd efg | f3  efg |
| afa gfe | f2d Bef | gag fed | c2B AFA |\
| BGB c2A | dfd e2f | agf edc | d3- d2 ||
K: Bm
|| c \
| Bcd cBA | B2d fde | fag fed | Bed cBA |\
| B2d cBA | Bde f2d | Bdf afe | f3- fde |
| faf ede | f2d edc | Bdf ede | f2d cBA |\
| BAB cBA | Bdf e2a | fdB cBA | B3- B2 |]
%%begintext align
%% My grand-son, Luke,
%% is in the Air Force, stationed over in Germany, where he
%% and his lovely wife, Laura, have managed to produce the
%% cutest little girl you ever saw. Her name is Jenna Leigh,
%% and so, of course, I had to write my great-grand-daughter a
%% tune to celebrate her arrival, Welcome to Earth, Jenna Leigh!
%%endtext

%%sep 1 1 500

%%sep 1 1 500

